src/shared/_assets/icons/academic-cap.svg

<svg width="19" height="15" viewBox="0 0 19 15" fill="none" xmlns="http://www.w3.org/2000/svg">
<path d="M9.16667 15L3.33333 11.8333V6.83333L0 5L9.16667 0L18.3333 5V11.6667H16.6667V5.91667L15 6.83333V11.8333L9.16667 15ZM9.16667 8.08333L14.875 5L9.16667 1.91667L3.45833 5L9.16667 8.08333ZM9.16667 13.1042L13.3333 10.8542V7.70833L9.16667 10L5 7.70833V10.8542L9.16667 13.1042Z" fill="#A1A1A1"/>
</svg>

<svg xmlns="http://www.w3.org/2000/svg" fill="none" viewBox="0 0 19 15"><path fill="currentColor" d="m9.167 15-5.834-3.167v-5L0 5l9.167-5 9.166 5v6.667h-1.666v-5.75L15 6.833v5zm0-6.917L14.875 5 9.167 1.917 3.458 5zm0 5.021 4.166-2.25V7.708L9.167 10 5 7.708v3.146z"/></svg>
